packages/foundations/assets/icons/functional/images/layout/grid_32.svg

<svg width="32" height="32" viewBox="0 0 32 32" fill="none" xmlns="http://www.w3.org/2000/svg">
<g clip-path="url(#clip0_185_1345)">
<path fill-rule="evenodd" clip-rule="evenodd" d="M26.1 18C27.7016 18 29 19.2984 29 20.9V26.1C29 27.7016 27.7016 29 26.1 29H20.892C19.2935 28.9956 18 27.6985 18 26.1V20.9C18 19.2984 19.2984 18 20.9 18H26.1ZM26.1006 20H20.8994C20.4027 20 20 20.4029 20 20.9V26.1C20 26.5971 20.4027 27 20.8994 27H26.1006C26.5973 27 27 26.5971 27 26.1V20.9C27 20.4029 26.5973 20 26.1006 20ZM26.1021 3C27.7026 3 29 4.29778 29 5.89868V11.0963C29.0013 11.866 28.6966 12.6045 28.153 13.1492C27.6094 13.6939 26.8715 14 26.1021 14H20.8979C19.2974 14 18 12.7022 18 11.1013V5.89868C18 4.29778 19.2974 3 20.8979 3H26.1021ZM26.1006 5L20.8994 5.005C20.4027 5.005 20 5.40765 20 5.90435V11.1006C20 11.5973 20.4027 12 20.8994 12H26.1006C26.5973 12 27 11.5973 27 11.1006V5.89936C27 5.40266 26.5973 5 26.1006 5ZM11.1 18C12.7016 18 14 19.2984 14 20.9V26.1C14 27.7016 12.7016 29 11.1 29H5.9C4.29837 29 3 27.7016 3 26.1V20.9C3 19.2984 4.29837 18 5.9 18H11.1ZM11.1 20H5.9C5.66131 20 5.43239 20.0948 5.2636 20.2636C5.09482 20.4324 5 20.6613 5 20.9V26.1C5 26.5971 5.40294 27 5.9 27H11.1C11.5971 27 12 26.5971 12 26.1V20.9C12 20.4029 11.5971 20 11.1 20ZM11.1013 3C12.7022 3 14 4.29778 14 5.89868V11.0963C14.0013 11.8654 13.6969 12.6036 13.1538 13.1482C12.6107 13.6928 11.8734 13.9992 11.1043 14H5.89868C4.29778 14 3 12.7022 3 11.1013V5.89868C3 4.29778 4.29778 3 5.89868 3H11.1013ZM11.1036 5L5.90236 5.005C5.66383 5.005 5.43508 5.09975 5.26642 5.26841C5.09775 5.43707 5.003 5.66583 5.003 5.90435V11.1006C5.003 11.3392 5.09775 11.5679 5.26642 11.7366C5.43508 11.9052 5.66383 12 5.90236 12H11.1036C11.6003 12 12.003 11.5973 12.003 11.1006V5.89936C12.003 5.66083 11.9082 5.43208 11.7396 5.26342C11.5709 5.09475 11.3422 5 11.1036 5Z" fill="#1A1C1F"/>
</g>
<defs>
<clipPath id="clip0_185_1345">
<rect width="32" height="32" fill="white"/>
</clipPath>
</defs>
</svg>

<svg xmlns="http://www.w3.org/2000/svg" width="32" height="32" fill="none"><g clip-path="url(#a)"><path fill="#1A1C1F" fill-rule="evenodd" d="M26.1 18a2.9 2.9 0 0 1 2.9 2.9v5.2a2.9 2.9 0 0 1-2.9 2.9h-5.208A2.9 2.9 0 0 1 18 26.1v-5.2a2.9 2.9 0 0 1 2.9-2.9zm0 2h-5.2a.9.9 0 0 0-.9.9v5.2a.9.9 0 0 0 .9.9h5.2a.9.9 0 0 0 .9-.9v-5.2a.9.9 0 0 0-.9-.9m.002-17C27.702 3 29 4.298 29 5.899v5.197A2.9 2.9 0 0 1 26.102 14h-5.204A2.9 2.9 0 0 1 18 11.101V5.9C18 4.298 19.297 3 20.898 3zm-.001 2-5.202.005a.9.9 0 0 0-.899.9V11.1a.9.9 0 0 0 .9.899h5.2a.9.9 0 0 0 .9-.9V5.9a.9.9 0 0 0-.9-.9M11.1 18a2.9 2.9 0 0 1 2.9 2.9v5.2a2.9 2.9 0 0 1-2.9 2.9H5.9A2.9 2.9 0 0 1 3 26.1v-5.2A2.9 2.9 0 0 1 5.9 18zm0 2H5.9a.9.9 0 0 0-.9.9v5.2a.9.9 0 0 0 .9.9h5.2a.9.9 0 0 0 .9-.9v-5.2a.9.9 0 0 0-.9-.9m.001-17C12.702 3 14 4.298 14 5.899v5.197A2.9 2.9 0 0 1 11.104 14H5.9A2.9 2.9 0 0 1 3 11.101V5.9C3 4.298 4.298 3 5.899 3zm.003 2-5.202.005a.9.9 0 0 0-.899.9V11.1a.9.9 0 0 0 .9.899h5.2a.9.9 0 0 0 .9-.9V5.9a.9.9 0 0 0-.9-.9" clip-rule="evenodd"/></g><defs><clipPath id="a"><path fill="#fff" d="M0 0h32v32H0z"/></clipPath></defs></svg>
